X:1
T:Old MacDonald Had A Farm
C:Traditional
M:4/4
L:1/4
K:G
"G"G G G D|"C"E E "G"D2|B B "D7"A A|"G"G2 z D|
G G G D|"C"E E "G"D2|B B "D"A A|"G"G2 z D/2D/2|
"G"G G G D/2D/2|G G Gz|G/G/ GG/G/G|G/G/G/G/ G G|
"G"G G G D|"C"E E "G"D2|B B "D7"A A|"G"G3 z|
